X: 443
T: Buffalo Gals
C:Traditional
B: jims roots
M:2/4
L:1/8
Q: 1/4=100
K:A
V:1 
"A"A2B2 c2e2 | feea B-ccf | "E"efec BAFE |[1 "A"FJAAB A2F-A :|[2  "A"FJAAB A2eg ||
"A"aeg2 (3fgf eg | faed c2c-e | "E"efec B2c-e | "A"efed cdeg |
"A"aeg2 (3fgf eg | faed c2c-e | "E"efec BEFE | "A"FJAAB A2eg ||
"A"aeg2 (3fgf eg | faed c2c-e | "E"efec B2a2- |"A" aefe B=c^ce |
"A"aeg2 (3fgf eg | faed c2c-e | "E"efed cA=cB | "A"ABAG FDEC ||
|: [K:D]"D"D2DE FEFG | ABAG FDFG | "A"ABAF E2 F2- | "D"FABA (=F^F2)E |
   "D"D2DE FEFG | ABAG FDFG | "A"ABAF GECE | "D"D2 y{=F}^F4z2 :|
(3ABc | "D"d2c2 B2A2 | BA2A F2FG | "A"ABAF E2FG | "D"ABA2 F2-FA |
      "D"dAcA BAFA | BAAB F2-FA | "A"ABAF GECE | "D"D2 y{=F}^F4 {=f}^f2- | ||
"D"fafe dfed | f2f2 defd | "A"(3gag ed cABc | "D"dddf dded |
"D"dfdd fafe | dfed Bcdf | "A"(3gab ed (3cde AG | "D"FDF=F EDB,A, ||
V:FA 
JA |: "A"A2B2 c2e2 | feea B-ccf | "E"efec B2c-e | "A"efe2 B=c^ce |
% abcbook-tune_id 6298c245d830cf7393e4b1c7


% abcbook-boost 0
% abcbook-tablature 
% abcbook-transpose 
% abcbook-lastupdated 1654178373554
% abcbook-soundfonts 
% abcbook-repeats 1


